X: 27
T: No_125_A_Basket_Full_of_Snipe.krn
N: Derived from No_125_A_Basket_Full_of_Snipe.krn
%%abc-version 2.0
%%abcx-abcm2ps-target-version 5.9.1 (29 Sep 2008)
%%abc-creator hum2abc beta
%%abcx-conversion-date 2019/03/15 08:36:13
%%humdrum-veritas 209653825
%%humdrum-veritas-data 4209565987
%%linebreak <none>
%%barnumbers 0
L: 1/8
M: 2/4
K: B clef=bass
[K:clef=bass][M:2/4]DDD2 | 
DC B, z ||  
[M:3/4]DD/D/ DD B,G,/ z/ ||  
[M:2/4]CB, G, z | 
B,D, D, z | 
B,B,/B,/ B,G, | 
D,/ z/ B,/B,/ G, z | 
B,G,/G,/ G,G, | 
G,G,/G,/ G,G, | 
B,2z2 |]  



